X:0762
T:British Boy's.
M:C
L:1/16
Q:1/4=120
I: || ||
N:Bar 4 is printed |G2A2B2A2 B2A2G2F2 D2D2|
Z:Jack Campin * www.campin.me.uk * 2009
K:D
Dd3 fedc d2A2F2A2|G2BG G2F2 G2E2 E3`F|Dd3  fedc d2A2`F2A2|G2A2`B2A2 BA`GF D2D2|
Dd3 fedc d2A2F2A2|G2BA G2F2 G2E2 E3`F|D2EF GABc defg a3`f|g2ab abag f2(d2 d4)||
a2f2g2ab a2f2d2ef|g2e2`f2d2 c2e2 A2fg|a2f2`g2ab a2f2 d2ef|g2e2`B2c2 d2`A2 D2fg|
a2f2g2ab a2f2d2ef|gfge fefd cdec A2fg|a2f2`g2ab a2f2`d'3f|g2ab abag f2(d2 d4)|]
<end>
<start>
